static/assets/img/logos/developer/bootstrap.svg

<svg fill="none" height="48" viewBox="0 0 143 48" width="143" xmlns="http://www.w3.org/2000/svg"><path clip-rule="evenodd" d="m6.18919 48c-3.41813 0-6.18919-2.7707-6.18919-6.1892v-.0002-35.62141c0-3.41813 2.77069-6.18919 6.18937-6.18919h35.62143c3.4181 0 6.1892 2.77069 6.1892 6.18937v35.62143c0 3.4181-2.7707 6.1892-6.1894 6.1892zm13.53441-33.7006v6.7975h6.4717c1.1398 0 2.076-.2713 2.8086-.8142.7327-.5426 1.0991-1.4246 1.0991-2.6458 0-.6782-.1222-1.2345-.3664-1.6687-.2443-.4341-.57-.7733-.9768-1.0176-.4071-.2443-.8753-.4138-1.4044-.5087-.5291-.095-1.0785-.1425-1.6485-.1425zm-6.3906 24.0966v-29.0625h13.6765c1.3839 0 2.6458.12206 3.7854.36637 1.1398.24413 2.1167.64443 2.9306 1.20073.8141.5563 1.4451 1.2958 1.8928 2.2183.4478.9227.6717 2.0623.6717 3.4191 0 1.4655-.3325 2.6865-.9972 3.6634-.6648.9768-1.6487 1.7775-2.9512 2.4015 1.791.5156 3.1275 1.4178 4.0095 2.7069.8818 1.2889 1.3228 2.8423 1.3228 4.6605 0 1.4653-.2848 2.7339-.8548 3.8059-.5698 1.0717-1.3365 1.947-2.2997 2.6254-.9634.6783-2.0623 1.1803-3.297 1.506-1.2347.3256-2.5033.4884-3.8059.4884zm6.3906-12.9439v7.978h6.8381c.6242 0 1.221-.0612 1.791-.183.5698-.1223 1.0719-.3257 1.506-.6107.4343-.2848.7802-.6717 1.038-1.1601s.3868-1.1124.3868-1.8724c0-1.4925-.4207-2.5575-1.2619-3.1952-.8413-.6378-1.9539-.9566-3.3378-.9566z" fill="#6c757d" fill-rule="evenodd"/><g fill="#adb5bd"><path d="m65.6543 29.0918c2.998 0 4.8047-1.5039 4.8047-3.9844 0-1.875-1.2891-3.2324-3.2031-3.4472v-.0782c1.4062-.2343 2.5097-1.5722 2.5097-3.0664 0-2.1289-1.6406-3.5156-4.1406-3.5156h-5.625v14.0918zm-3.4668-12.3047h2.9102c1.582 0 2.4804.7227 2.4804 2.0313 0 1.3964-1.0449 2.1777-2.9394 2.1777h-2.4512zm0 10.5176v-4.6387h2.8906c2.0703 0 3.1446.7813 3.1446 2.3047s-1.045 2.334-3.0176 2.334z"/><path d="m76.5039 29.2871c2.9395 0 4.8731-2.0215 4.8731-5.332 0-3.3008-1.9434-5.3223-4.8731-5.3223s-4.873 2.0215-4.873 5.3223c0 3.3105 1.9336 5.332 4.873 5.332zm0-1.7383c-1.6504 0-2.7246-1.3086-2.7246-3.5937 0-2.2754 1.0742-3.584 2.7246-3.584s2.7246 1.3086 2.7246 3.584c0 2.2851-1.0644 3.5937-2.7246 3.5937z"/><path d="m87.4219 29.2871c2.9394 0 4.873-2.0215 4.873-5.332 0-3.3008-1.9433-5.3223-4.873-5.3223s-4.8731 2.0215-4.8731 5.3223c0 3.3105 1.9336 5.332 4.8731 5.332zm0-1.7383c-1.6504 0-2.7246-1.3086-2.7246-3.5937 0-2.2754 1.0742-3.584 2.7246-3.584s2.7246 1.3086 2.7246 3.584c0 2.2851-1.0645 3.5937-2.7246 3.5937z"/><path d="m94.541 16.3867v2.4317h-1.4941v1.6699h1.4941v5.8984c0 1.9824.8106 2.7735 2.8906 2.7735.4688 0 .9375-.0391 1.1719-.0977v-1.6699c-.1367.0293-.4785.0488-.6933.0488-.8594 0-1.25-.4004-1.25-1.2891v-5.664h1.9531v-1.6699h-1.9531v-2.4317z"/><path d="m100.166 21.7285c0 1.4356.938 2.4024 2.793 2.8516l1.836.4492c1.074.2734 1.465.6348 1.465 1.2891 0 .83-.781 1.3574-2.051 1.3574-1.289 0-2.051-.5469-2.217-1.5332h-2.0897c.1657 1.8847 1.7777 3.1445 4.2087 3.1445 2.52 0 4.268-1.2891 4.268-3.1641 0-1.5136-.781-2.2949-2.852-2.7929l-1.728-.4004c-1.065-.2637-1.572-.6934-1.572-1.3281 0-.8106.761-1.3672 1.904-1.3672 1.181 0 1.933.5761 2.031 1.5039h1.983c-.069-1.8262-1.67-3.1055-3.956-3.1055-2.402 0-4.023 1.2598-4.023 3.0957z"/><path d="m110.635 16.3867v2.4317h-1.494v1.6699h1.494v5.8984c0 1.9824.81 2.7735 2.89 2.7735.469 0 .938-.0391 1.172-.0977v-1.6699c-.136.0293-.478.0488-.693.0488-.859 0-1.25-.4004-1.25-1.2891v-5.664h1.953v-1.6699h-1.953v-2.4317z"/><path d="m116.445 29.0918h2.11v-6.1523c0-1.4551.84-2.3633 2.197-2.3633.41 0 .781.0488.947.1172v-1.9629c-.156-.0293-.42-.0782-.722-.0782-1.211 0-2.129.7129-2.471 1.9141h-.049v-1.748h-2.012z"/><path d="m126.387 27.5977c-1.133 0-1.875-.586-1.875-1.4844 0-.8789.713-1.4356 1.972-1.5235l2.53-.1562v.8105c0 1.3379-1.153 2.3536-2.627 2.3536zm-.586 1.6699c1.347 0 2.646-.7227 3.242-1.8653h.049v1.6895h2.021v-7.0801c0-2.0605-1.592-3.3789-4.082-3.3789-2.539 0-4.121 1.3672-4.238 3.2227h1.992c.186-.918.947-1.5039 2.168-1.5039 1.289 0 2.061.6836 2.061 1.8261v.7911l-2.813.166c-2.441.1367-3.818 1.2402-3.818 3.0371 0 1.8457 1.406 3.0957 3.418 3.0957z"/><path d="m138.516 18.6523c-1.485 0-2.666.752-3.272 1.9336h-.039v-1.7675h-2.041v13.6718h2.109v-5.0879h.049c.586 1.1426 1.758 1.8653 3.233 1.8653 2.578 0 4.287-2.0606 4.287-5.3125 0-3.252-1.719-5.3028-4.326-5.3028zm-.557 8.8282c-1.621 0-2.695-1.3867-2.695-3.5254 0-2.1192 1.084-3.5254 2.695-3.5254 1.67 0 2.715 1.3769 2.715 3.5254 0 2.1582-1.045 3.5254-2.715 3.5254z"/></g></svg>

<svg width="143" height="48" viewBox="0 0 143 48" fill="none" xmlns="http://www.w3.org/2000/svg">
<path fill-rule="evenodd" clip-rule="evenodd" d="M6.18919 48C2.77106 48 0 45.2293 0 41.8108V41.8106V6.18919C0 2.77106 2.77069 0 6.18937 0H41.8108C45.2289 0 48 2.77069 48 6.18937V41.8108C48 45.2289 45.2293 48 41.8106 48H6.18919ZM19.7236 14.2994V21.0969H26.1953C27.3351 21.0969 28.2713 20.8256 29.0039 20.2827C29.7366 19.7401 30.103 18.8581 30.103 17.6369C30.103 16.9587 29.9808 16.4024 29.7366 15.9682C29.4923 15.5341 29.1666 15.1949 28.7598 14.9506C28.3527 14.7063 27.8845 14.5368 27.3554 14.4419C26.8263 14.3469 26.2769 14.2994 25.7069 14.2994H19.7236ZM13.333 38.396V9.3335H27.0095C28.3934 9.3335 29.6553 9.45556 30.7949 9.69987C31.9347 9.944 32.9116 10.3443 33.7255 10.9006C34.5396 11.4569 35.1706 12.1964 35.6183 13.1189C36.0661 14.0416 36.29 15.1812 36.29 16.538C36.29 18.0035 35.9575 19.2245 35.2928 20.2014C34.628 21.1782 33.6441 21.9789 32.3416 22.6029C34.1326 23.1185 35.4691 24.0207 36.3511 25.3098C37.2329 26.5987 37.6739 28.1521 37.6739 29.9703C37.6739 31.4356 37.3891 32.7042 36.8191 33.7762C36.2493 34.8479 35.4826 35.7232 34.5194 36.4016C33.556 37.0799 32.4571 37.5819 31.2224 37.9076C29.9877 38.2332 28.7191 38.396 27.4165 38.396H13.333ZM19.7236 25.4521V33.4301H26.5617C27.1859 33.4301 27.7827 33.3689 28.3527 33.2471C28.9225 33.1248 29.4246 32.9214 29.8587 32.6364C30.293 32.3516 30.6389 31.9647 30.8967 31.4763C31.1545 30.9879 31.2835 30.3639 31.2835 29.6039C31.2835 28.1114 30.8628 27.0464 30.0216 26.4087C29.1803 25.7709 28.0677 25.4521 26.6838 25.4521H19.7236Z" fill="#6C757D"/>
<path d="M65.6543 29.0918C68.6523 29.0918 70.459 27.5879 70.459 25.1074C70.459 23.2324 69.1699 21.875 67.2559 21.6602V21.582C68.6621 21.3477 69.7656 20.0098 69.7656 18.5156C69.7656 16.3867 68.125 15 65.625 15H60V29.0918H65.6543ZM62.1875 16.7871H65.0977C66.6797 16.7871 67.5781 17.5098 67.5781 18.8184C67.5781 20.2148 66.5332 20.9961 64.6387 20.9961H62.1875V16.7871ZM62.1875 27.3047V22.666H65.0781C67.1484 22.666 68.2227 23.4473 68.2227 24.9707C68.2227 26.4941 67.1777 27.3047 65.2051 27.3047H62.1875Z" fill="#ADB5BD"/>
<path d="M76.5039 29.2871C79.4434 29.2871 81.377 27.2656 81.377 23.9551C81.377 20.6543 79.4336 18.6328 76.5039 18.6328C73.5742 18.6328 71.6309 20.6543 71.6309 23.9551C71.6309 27.2656 73.5645 29.2871 76.5039 29.2871ZM76.5039 27.5488C74.8535 27.5488 73.7793 26.2402 73.7793 23.9551C73.7793 21.6797 74.8535 20.3711 76.5039 20.3711C78.1543 20.3711 79.2285 21.6797 79.2285 23.9551C79.2285 26.2402 78.1641 27.5488 76.5039 27.5488Z" fill="#ADB5BD"/>
<path d="M87.4219 29.2871C90.3613 29.2871 92.2949 27.2656 92.2949 23.9551C92.2949 20.6543 90.3516 18.6328 87.4219 18.6328C84.4922 18.6328 82.5488 20.6543 82.5488 23.9551C82.5488 27.2656 84.4824 29.2871 87.4219 29.2871ZM87.4219 27.5488C85.7715 27.5488 84.6973 26.2402 84.6973 23.9551C84.6973 21.6797 85.7715 20.3711 87.4219 20.3711C89.0723 20.3711 90.1465 21.6797 90.1465 23.9551C90.1465 26.2402 89.082 27.5488 87.4219 27.5488Z" fill="#ADB5BD"/>
<path d="M94.541 16.3867V18.8184H93.0469V20.4883H94.541V26.3867C94.541 28.3691 95.3516 29.1602 97.4316 29.1602C97.9004 29.1602 98.3691 29.1211 98.6035 29.0625V27.3926C98.4668 27.4219 98.125 27.4414 97.9102 27.4414C97.0508 27.4414 96.6602 27.041 96.6602 26.1523V20.4883H98.6133V18.8184H96.6602V16.3867H94.541Z" fill="#ADB5BD"/>
<path d="M100.166 21.7285C100.166 23.1641 101.104 24.1309 102.959 24.5801L104.795 25.0293C105.869 25.3027 106.26 25.6641 106.26 26.3184C106.26 27.1484 105.479 27.6758 104.209 27.6758C102.92 27.6758 102.158 27.1289 101.992 26.1426H99.9023C100.068 28.0273 101.68 29.2871 104.111 29.2871C106.631 29.2871 108.379 27.998 108.379 26.123C108.379 24.6094 107.598 23.8281 105.527 23.3301L103.799 22.9297C102.734 22.666 102.227 22.2363 102.227 21.6016C102.227 20.791 102.988 20.2344 104.131 20.2344C105.312 20.2344 106.064 20.8105 106.162 21.7383H108.145C108.076 19.9121 106.475 18.6328 104.189 18.6328C101.787 18.6328 100.166 19.8926 100.166 21.7285Z" fill="#ADB5BD"/>
<path d="M110.635 16.3867V18.8184H109.141V20.4883H110.635V26.3867C110.635 28.3691 111.445 29.1602 113.525 29.1602C113.994 29.1602 114.463 29.1211 114.697 29.0625V27.3926C114.561 27.4219 114.219 27.4414 114.004 27.4414C113.145 27.4414 112.754 27.041 112.754 26.1523V20.4883H114.707V18.8184H112.754V16.3867H110.635Z" fill="#ADB5BD"/>
<path d="M116.445 29.0918H118.555V22.9395C118.555 21.4844 119.395 20.5762 120.752 20.5762C121.162 20.5762 121.533 20.625 121.699 20.6934V18.7305C121.543 18.7012 121.279 18.6523 120.977 18.6523C119.766 18.6523 118.848 19.3652 118.506 20.5664H118.457V18.8184H116.445V29.0918Z" fill="#ADB5BD"/>
<path d="M126.387 27.5977C125.254 27.5977 124.512 27.0117 124.512 26.1133C124.512 25.2344 125.225 24.6777 126.484 24.5898L129.014 24.4336V25.2441C129.014 26.582 127.861 27.5977 126.387 27.5977ZM125.801 29.2676C127.148 29.2676 128.447 28.5449 129.043 27.4023H129.092V29.0918H131.113V22.0117C131.113 19.9512 129.521 18.6328 127.031 18.6328C124.492 18.6328 122.91 20 122.793 21.8555H124.785C124.971 20.9375 125.732 20.3516 126.953 20.3516C128.242 20.3516 129.014 21.0352 129.014 22.1777V22.9688L126.201 23.1348C123.76 23.2715 122.383 24.375 122.383 26.1719C122.383 28.0176 123.789 29.2676 125.801 29.2676Z" fill="#ADB5BD"/>
<path d="M138.516 18.6523C137.031 18.6523 135.85 19.4043 135.244 20.5859H135.205V18.8184H133.164V32.4902H135.273V27.4023H135.322C135.908 28.5449 137.08 29.2676 138.555 29.2676C141.133 29.2676 142.842 27.207 142.842 23.9551C142.842 20.7031 141.123 18.6523 138.516 18.6523ZM137.959 27.4805C136.338 27.4805 135.264 26.0938 135.264 23.9551C135.264 21.8359 136.348 20.4297 137.959 20.4297C139.629 20.4297 140.674 21.8066 140.674 23.9551C140.674 26.1133 139.629 27.4805 137.959 27.4805Z" fill="#ADB5BD"/>
</svg>
